build/img/sprite/sprite.svg

<svg xmlns="http://www.w3.org/2000/svg" xmlns:xlink="http://www.w3.org/1999/xlink"><symbol id="icon-cross" viewBox="0 0 16 16">
<path d="M1 1L15 15M15 1L1 15" stroke="#1A212F" stroke-width="2" stroke-linecap="round" stroke-linejoin="round"/>
</symbol><symbol id="icon-logo" viewBox="0 0 63 52">
<path d="M7.8994 48.4825C7.8188 47.5104 7.23843 46.5545 5.64243 46.4735C6.62583 46.3438 7.98001 44.0756 7.39964 42.3906C6.91601 41.0297 5.4651 41.5644 4.61067 41.8236C4.44946 43.1197 4.82025 45.5014 3.38546 45.8092C3.32097 45.1287 3.44994 43.9946 3.27261 42.8119C2.93406 40.8515 0.548122 41.7588 0 42.0018C0.209576 44.1728 0.177334 44.7561 0.177334 47.3646C0.193455 48.2556 0.0967274 49.6652 0.177334 50.4267C0.403031 52.4519 2.80509 51.9172 3.46606 51.2205C3.46606 50.3619 3.44994 48.6121 3.40158 47.64C4.46558 47.559 4.65904 47.8668 4.69128 50.135C4.7074 52.4033 7.38352 51.982 8.17346 51.2043C7.8994 50.3619 7.98001 49.2925 7.8994 48.4825Z" fill="#1A212F"/>
<path d="M9.29804 46.8137C9.29804 51.5122 11.7162 51.901 13.409 51.8524C14.9727 51.8524 17.536 51.415 17.5521 46.8137C17.536 42.8767 15.7949 41.4834 13.4573 41.4834C10.9908 41.4834 9.29804 43.0063 9.29804 46.8137ZM13.4573 44.1242C13.6347 44.1242 14.3117 43.865 14.3117 46.7003C14.3117 48.5473 14.0216 49.6004 13.4412 49.6004C12.9576 49.6004 12.5707 49.1629 12.619 46.7003C12.619 44.4645 13.1833 44.1242 13.4573 44.1242Z" fill="#1A212F"/>
<path d="M20.8692 44.4645C20.8692 45.388 20.8531 46.4087 20.9014 49.5518C20.9175 50.8155 20.9659 51.8524 22.4168 51.82C23.7065 51.82 24.0289 51.3016 24.174 51.1395C24.2224 49.73 24.1257 46.6517 24.0934 44.5131C24.4481 44.5131 24.7866 44.5131 25.0929 44.4969C26.1247 44.4645 26.4794 43.8488 26.4632 42.9901C26.4471 42.018 25.6572 41.4996 24.5609 41.4996H21.4979C19.0636 41.5158 18.9024 41.5158 18.7089 41.4996C18.2575 43.4114 18.5316 44.4321 20.3855 44.4645H20.8692Z" fill="#1A212F"/>
<path d="M33.1037 41.5644C31.9752 41.451 29.2507 41.4996 27.3645 41.5806C27.5741 43.7354 27.5902 46.5059 27.558 48.4663C27.5902 50.3457 27.429 51.658 29.3958 51.7876C30.6855 51.8848 31.411 51.8848 32.5717 51.7876C34.1516 51.658 34.7964 50.7993 34.0387 48.9199C32.7329 49.1143 31.5238 49.1629 30.7661 49.0171C30.7661 48.7903 30.7339 48.0774 30.7661 47.8992C31.4916 47.8992 32.2815 47.8668 32.9747 47.8668C34.4095 47.8668 34.2644 45.55 32.9586 45.55C32.0236 45.5014 31.6044 45.5986 30.7339 45.5176V44.2376C31.7173 44.1566 32.1525 44.2052 32.9747 44.2376C34.5224 44.2862 34.5224 41.8884 33.1037 41.5644Z" fill="#1A212F"/>
<path d="M38.1396 38.0324C37.0756 38.7291 37.14 39.7822 37.8977 40.414C38.7522 41.0297 40.4288 40.8353 41.5573 40.333C42.589 39.8632 42.992 38.7939 41.8958 38C40.2676 38.8587 39.1874 38.4212 38.1396 38.0324ZM43.8787 42.9415C43.8787 41.9694 43.2661 41.4996 42.2988 41.4996C41.1703 41.4996 40.59 41.7912 40.2514 42.8281C39.8484 44.0918 39.2519 46.036 38.9134 47.3808C38.9134 46.7975 39.0101 43.3627 39.0101 42.9415C39.0101 41.8722 38.4459 41.4996 37.4947 41.4996C36.8337 41.4996 35.6569 41.9208 35.6569 41.9208C35.7536 42.6499 35.8342 43.0711 35.8503 44.027C35.8826 45.0315 35.8503 46.6355 35.9471 49.811C35.9954 51.3664 36.4952 51.8848 37.7526 51.8362C40.0096 51.7552 40.1547 47.5752 40.7673 46.0522C40.7673 46.7489 40.7351 49.1629 40.7351 49.973C40.7351 51.0747 40.8318 51.8362 42.1054 51.8362C43.2016 51.8362 43.8303 51.4636 44.0238 51.1233C43.8948 50.6373 43.8465 47.6886 43.8465 45.3718C43.8465 44.351 43.8626 43.46 43.8787 42.9415Z" fill="#1A212F"/>
<path d="M53.2183 48.4825C53.1377 47.5104 52.5574 46.5545 50.9613 46.4735C51.9447 46.3438 53.2989 44.0756 52.7186 42.3906C52.2349 41.0297 50.784 41.5644 49.9296 41.8236C49.7684 43.1197 50.1392 45.5014 48.7044 45.8092C48.6399 45.1287 48.7689 43.9946 48.5915 42.8119C48.253 40.8515 45.867 41.7588 45.3189 42.0018C45.5285 44.1728 45.4963 44.7561 45.4963 47.3646C45.5124 48.2556 45.4156 49.6652 45.4963 50.4267C45.7219 52.4519 48.124 51.9172 48.785 51.2205C48.785 50.3619 48.7689 48.6121 48.7205 47.64C49.7845 47.559 49.978 47.8668 50.0102 50.135C50.0263 52.4033 52.7024 51.982 53.4924 51.2043C53.2183 50.3619 53.2989 49.2925 53.2183 48.4825Z" fill="#1A212F"/>
<path d="M63 51.1395C62.7743 50.5077 62.7904 50.1998 62.7421 49.2925C62.6131 46.9271 62.5808 44.6427 61.807 43.0711C60.5012 40.7543 57.1319 41.3861 55.5036 42.5527C55.3585 45.3555 54.8749 46.5059 54.5686 49.6328C54.3429 51.9172 56.2452 52.5491 58.0185 51.4312C58.0185 51.1557 58.0185 50.1998 58.0991 49.973C58.3087 49.973 59.0987 49.9892 59.405 49.9892C59.405 49.9892 59.3244 50.9289 59.7758 51.4312C60.5818 52.3547 62.4358 52.0792 63 51.1395ZM58.212 47.9478C58.3248 47.0729 58.3248 45.2583 58.3732 44.8695C58.4538 44.8047 59.0019 44.8371 59.0664 44.9181C59.2599 45.6796 59.2599 47.0729 59.3082 47.9478H58.212Z" fill="#1A212F"/>
<path d="M39 6.99531L45.5759 0.418766C46.4704 -0.475816 48 0.157766 48 1.423V18.9964C47.9999 13.2963 43.4869 9.82971 39 6.99531Z" fill="#FF7236"/>
<path d="M48 18.9966C48 27.834 40.8366 34.998 32.0001 34.998C23.1637 34.998 16.0002 27.8339 16.0002 18.9966C16.0002 10.1593 23.1636 3.99524 32.0001 3.99524C40.8367 3.99524 48 10.1592 48 18.9966Z" fill="#FFAA50"/>
<path d="M25 18.9964C25 11.2947 29.4219 5.62687 35.3103 4.29649C34.2417 4.1004 33.1354 3.99505 32 3.99505C29.0556 3.99505 26.3064 4.6923 23.9366 5.93182L18.4241 0.418766C17.5296 -0.475816 16 0.157766 16 1.423V18.9964C16 18.6357 16 18.6377 16 18.9964C16 27.8338 23.1634 34.9978 31.9999 34.9978C33.1354 34.9978 34.2417 34.8756 35.3102 34.6508C29.4219 33.1252 25 26.6981 25 18.9964Z" fill="#FF7236"/>
<path d="M28.4999 28.9973C30.4329 28.9973 31.9999 27.6541 31.9999 25.9971C31.9999 24.3401 30.4329 22.9968 28.4999 22.9968C26.567 22.9968 25 24.3401 25 25.9971C25 27.6541 26.567 28.9973 28.4999 28.9973Z" fill="#FFFDFB"/>
<path d="M35.5002 28.9973C37.4331 28.9973 39.0001 27.6541 39.0001 25.9971C39.0001 24.3401 37.4331 22.9968 35.5002 22.9968C33.5672 22.9968 32.0002 24.3401 32.0002 25.9971C32.0002 27.6541 33.5672 28.9973 35.5002 28.9973Z" fill="#FFFDFB"/>
<path d="M32.0003 25.9977C33.1048 25.9977 34.0003 25.1022 34.0003 23.9975C34.0003 22.8928 33.1048 21.9973 32.0003 21.9973C30.8957 21.9973 30.0002 22.8928 30.0002 23.9975C30.0002 25.1022 30.8957 25.9977 32.0003 25.9977Z" fill="#FF913C"/>
<path d="M26.0002 19.9965C25.4474 19.9965 25.0002 19.5487 25.0002 18.9964V17.9964C25.0002 17.4441 25.4475 16.9963 26.0002 16.9963C26.5528 16.9963 27.0001 17.4441 27.0001 17.9964V18.9964C27.0001 19.5487 26.5528 19.9965 26.0002 19.9965Z" fill="#1A212F"/>
<path d="M38 19.9965C37.4472 19.9965 37 19.5487 37 18.9964V17.9964C37 17.4441 37.4473 16.9963 38 16.9963C38.5527 16.9963 38.9999 17.4441 38.9999 17.9964V18.9964C39 19.5487 38.5527 19.9965 38 19.9965Z" fill="#1A212F"/>
</symbol><symbol id="icon-menu" viewBox="0 0 24 16">
<path d="M1 1H23M1 8H23M1 15H23" stroke="#1A212F" stroke-width="2" stroke-linecap="round" stroke-linejoin="round"/>
</symbol></svg>

<svg xmlns="http://www.w3.org/2000/svg" xmlns:xlink="http://www.w3.org/1999/xlink"><symbol id="icon-cross"><path d="M1 1l14 14m0-14L1 15" stroke="#1A212F" stroke-width="2" stroke-linecap="round" stroke-linejoin="round"/></symbol><symbol id="icon-logo"><path d="M7.9 48.483c-.081-.973-.662-1.928-2.258-2.01.984-.13 2.338-2.397 1.758-4.082-.484-1.361-1.935-.827-2.79-.567-.16 1.296.21 3.677-1.225 3.985-.064-.68.065-1.814-.112-2.997-.339-1.96-2.725-1.053-3.273-.81.21 2.17.177 2.754.177 5.363.016.89-.08 2.3 0 3.062.226 2.025 2.628 1.49 3.29.794 0-.86-.017-2.609-.065-3.581 1.064-.081 1.257.227 1.29 2.495.015 2.268 2.692 1.847 3.481 1.07-.274-.843-.193-1.913-.274-2.722zm1.398-1.669c0 4.698 2.418 5.087 4.111 5.038 1.564 0 4.127-.437 4.143-5.038-.016-3.937-1.757-5.33-4.095-5.33-2.466 0-4.159 1.522-4.159 5.33zm4.16-2.69c.177 0 .854-.259.854 2.576 0 1.847-.29 2.9-.87 2.9-.484 0-.871-.437-.823-2.9 0-2.236.564-2.576.838-2.576zm7.412.341c0 .923-.017 1.944.031 5.087.017 1.264.065 2.3 1.516 2.268 1.29 0 1.612-.518 1.757-.68.048-1.41-.048-4.488-.08-6.627.354 0 .693 0 .999-.016 1.032-.032 1.386-.648 1.37-1.507-.016-.972-.806-1.49-1.902-1.49h-3.063c-2.434.016-2.596.016-2.79 0-.45 1.911-.176 2.932 1.678 2.965h.483zm12.234-2.901c-1.129-.113-3.853-.064-5.74.017.21 2.154.226 4.925.194 6.885.032 1.88-.129 3.192 1.838 3.322 1.29.097 2.015.097 3.176 0 1.58-.13 2.224-.989 1.467-2.868-1.306.194-2.515.243-3.273.097 0-.227-.032-.94 0-1.118.726 0 1.516-.032 2.209-.032 1.434 0 1.29-2.317-.016-2.317-.935-.049-1.355.049-2.225-.032v-1.28c.983-.081 1.419-.033 2.24 0 1.548.048 1.548-2.35.13-2.674zm5.036-3.532c-1.064.697-1 1.75-.242 2.382.854.616 2.53.421 3.66-.081 1.031-.47 1.434-1.54.338-2.333-1.628.859-2.709.421-3.756.032zm5.739 4.91c0-.973-.613-1.442-1.58-1.442-1.129 0-1.709.291-2.048 1.328-.403 1.264-1 3.208-1.338 4.553 0-.584.097-4.018.097-4.44 0-1.069-.564-1.441-1.515-1.441-.661 0-1.838.42-1.838.42.097.73.177 1.151.193 2.107.033 1.005 0 2.608.097 5.784.048 1.555.548 2.074 1.806 2.025 2.257-.08 2.402-4.26 3.014-5.784 0 .697-.032 3.11-.032 3.921 0 1.102.097 1.863 1.37 1.863 1.097 0 1.725-.372 1.919-.713-.13-.486-.178-3.434-.178-5.751 0-1.021.017-1.912.033-2.43zm9.339 5.541c-.08-.973-.66-1.928-2.257-2.01.984-.13 2.338-2.397 1.758-4.082-.484-1.361-1.935-.827-2.79-.567-.16 1.296.21 3.677-1.225 3.985-.064-.68.065-1.814-.112-2.997-.339-1.96-2.725-1.053-3.273-.81.21 2.17.177 2.754.177 5.363.016.89-.08 2.3 0 3.062.226 2.025 2.628 1.49 3.289.794 0-.86-.016-2.609-.064-3.581 1.064-.081 1.257.227 1.29 2.495.015 2.268 2.691 1.847 3.481 1.07-.274-.843-.193-1.913-.274-2.722zM63 51.14c-.226-.632-.21-.94-.258-1.848-.129-2.365-.161-4.65-.935-6.22-1.306-2.318-4.675-1.686-6.303-.52-.145 2.803-.63 3.954-.935 7.08-.226 2.285 1.676 2.917 3.45 1.8 0-.276 0-1.232.08-1.459.21 0 1 .016 1.306.016 0 0-.08.94.37 1.442.807.924 2.66.648 3.225-.291zm-4.788-3.192c.113-.875.113-2.69.161-3.078.08-.065.629-.033.693.048.194.762.194 2.155.242 3.03h-1.096z" fill="#1A212F"/><path d="M39 6.995L45.576.42C46.47-.476 48 .158 48 1.423v17.573c0-5.7-4.513-9.166-9-12z" fill="#FF7236"/><path d="M48 18.997c0 8.837-7.163 16.001-16 16.001-8.836 0-16-7.164-16-16.001 0-8.838 7.164-15.002 16-15.002 8.837 0 16 6.164 16 15.002z" fill="#FFAA50"/><path d="M25 18.996c0-7.701 4.422-13.37 10.31-14.7A18.328 18.328 0 0032 3.995c-2.944 0-5.694.697-8.063 1.937L18.424.419C17.53-.476 16 .158 16 1.423v17.573c0-.36 0-.358 0 0 0 8.838 7.163 16.002 16 16.002 1.135 0 2.242-.122 3.31-.347C29.422 33.125 25 26.698 25 18.996z" fill="#FF7236"/><path d="M28.5 28.997c1.933 0 3.5-1.343 3.5-3s-1.567-3-3.5-3-3.5 1.343-3.5 3 1.567 3 3.5 3zm7 0c1.933 0 3.5-1.343 3.5-3s-1.567-3-3.5-3-3.5 1.343-3.5 3 1.567 3 3.5 3z" fill="#FFFDFB"/><path d="M32 25.998a2 2 0 100-4 2 2 0 000 4z" fill="#FF913C"/><path d="M26 19.997a1 1 0 01-1-1v-1a1 1 0 112 0v1a1 1 0 01-1 1zm12 0a1 1 0 01-1-1v-1a1 1 0 112 0v1a1 1 0 01-1 1z" fill="#1A212F"/></symbol><symbol id="icon-menu"><path d="M1 1h22M1 8h22M1 15h22" stroke="#1A212F" stroke-width="2" stroke-linecap="round" stroke-linejoin="round"/></symbol><symbol id="icon-paw"><path d="M16.803 6.525c-2.964 1.7-2.46 6.662.756 6.662 1.387 0 2.587-1.042 3.122-2.375 1.234-3.078-1.333-5.748-3.878-4.287zm-3.045.615c3.557 0 4.622-6.04 1.243-7.034-1.54-.452-3.29.633-3.852 2.617-.631 2.223.61 4.416 2.61 4.416z"/><path d="M12.844 17.89c-.494-.136-1.37-.224-2.288-.237-.97-.014-1.986.055-2.643.237-1.775.495-4.19-.701-3.66-3.186.49-2.296 2.251-2.165 2.668-4.341.42-2.2 2.05-3.262 3.635-3.179 1.466.077 2.894 1.135 3.283 3.179.414 2.178 2.171 2.046 2.66 4.341.532 2.487-1.888 3.676-3.655 3.186zM7.499 7.14c1.006 0 1.87-.585 2.35-1.48C11.276 3.002 8.932-.68 6.256.109 2.87 1.104 3.944 7.14 7.499 7.14z"/><path d="M5.89 11.21c1.143-2.794-1.564-6.208-4.15-5.134C-1.373 7.37 0 12.95 3.425 12.95c1.099 0 2.033-.677 2.467-1.74zm6.954 6.68c-.494-.136-1.371-.224-2.289-.237V7.184c1.467.077 2.895 1.135 3.284 3.179.414 2.178 2.171 2.046 2.66 4.341.532 2.486-1.888 3.676-3.655 3.186z"/></symbol></svg>
